contributed-vectors/routinery.svg

<svg xmlns="http://www.w3.org/2000/svg" xml:space="preserve" style="fill-rule:evenodd;clip-rule:evenodd;stroke-linecap:round;stroke-linejoin:round;stroke-miterlimit:1.5" viewBox="0 0 192 192"><path d="M164.5 21.5c0-5.519-4.481-10-10-10h-133c-5.519 0-10 4.481-10 10v133c0 5.519 4.481 10 10 10h133c5.519 0 10-4.481 10-10v-133Z" style="fill:#fff" transform="translate(8 8)"/><circle cx="106.748" cy="100.849" r="49.542" style="fill:#f9de81" transform="matrix(.59835 0 0 .59835 37.43 38.444)"/><path d="M58.288 90.512c4.76-22.388 24.662-39.205 48.46-39.205 27.343 0 49.542 22.199 49.542 49.542 0 27.342-22.199 49.541-49.542 49.541-15.148 0-28.718-6.813-37.809-17.541l10.611.389-10.611-.389.51 10.606" style="fill:none;stroke:#56595b;stroke-width:5.01px" transform="matrix(.59835 0 0 .59835 25.734 32.072)"/></svg>

<?xml version="1.0" encoding="UTF-8" standalone="no"?>
<!DOCTYPE svg PUBLIC "-//W3C//DTD SVG 1.1//EN" "http://www.w3.org/Graphics/SVG/1.1/DTD/svg11.dtd">
<svg width="100%" height="100%" viewBox="0 0 192 192" version="1.1" xmlns="http://www.w3.org/2000/svg" xmlns:xlink="http://www.w3.org/1999/xlink" xml:space="preserve" xmlns:serif="http://www.serif.com/" style="fill-rule:evenodd;clip-rule:evenodd;stroke-linecap:round;stroke-linejoin:round;stroke-miterlimit:1.5;">
    <g transform="matrix(1,0,0,1,8,8)">
        <path d="M164.5,21.5C164.5,15.981 160.019,11.5 154.5,11.5L21.5,11.5C15.981,11.5 11.5,15.981 11.5,21.5L11.5,154.5C11.5,160.019 15.981,164.5 21.5,164.5L154.5,164.5C160.019,164.5 164.5,160.019 164.5,154.5L164.5,21.5Z" style="fill:white;"/>
    </g>
    <g id="Layer1">
        <g transform="matrix(0.598353,0,0,0.598353,37.4298,38.4445)">
            <circle cx="106.748" cy="100.849" r="49.542" style="fill:rgb(249,222,129);"/>
        </g>
        <g transform="matrix(0.598353,0,0,0.598353,25.7337,32.0722)">
            <path d="M58.288,90.512C63.048,68.124 82.95,51.307 106.748,51.307C134.091,51.307 156.29,73.506 156.29,100.849C156.29,128.191 134.091,150.39 106.748,150.39C91.6,150.39 78.03,143.577 68.939,132.849L79.55,133.238L68.939,132.849L69.449,143.455" style="fill:none;stroke:rgb(86,89,91);stroke-width:5.01px;"/>
        </g>
    </g>
</svg>
